src/images/svg/symbols/markets-stocks-and-indices/american-stocks/stocks-airbnb.svg

<svg width="32" height="32" viewBox="0 0 32 32" fill="none" xmlns="http://www.w3.org/2000/svg">
<path d="M0 16C0 7.16344 7.16344 0 16 0C24.8366 0 32 7.16344 32 16C32 24.8366 24.8366 32 16 32C7.16344 32 0 24.8366 0 16Z" fill="#FF5A5F"/>
<path d="M23.9879 21.1979C23.8479 22.2394 23.1471 23.14 22.1662 23.5404C21.6856 23.7401 21.1648 23.8007 20.644 23.7401C20.1438 23.6804 19.6426 23.5198 19.1228 23.2203C18.4023 22.8189 17.6809 22.1993 16.84 21.2781C18.1615 19.6561 18.9623 18.175 19.2628 16.8535C19.4028 16.2329 19.4233 15.672 19.3626 15.1512C19.2824 14.651 19.1023 14.1899 18.8223 13.7895C18.2017 12.8889 17.1601 12.3682 15.9991 12.3682C14.8381 12.3682 13.7966 12.9085 13.176 13.7895C12.896 14.1899 12.7159 14.651 12.6356 15.1512C12.5554 15.672 12.5759 16.2524 12.7355 16.8535C13.036 18.175 13.8563 19.6766 15.1583 21.2977C14.337 22.2189 13.5969 22.8395 12.8755 23.2399C12.3547 23.5404 11.8545 23.7009 11.3542 23.7606C10.8381 23.8185 10.3164 23.7494 9.83301 23.5609C8.85215 23.1605 8.15126 22.259 8.01127 21.2184C7.95154 20.7182 7.99167 20.2179 8.19139 19.657C8.25112 19.4564 8.35191 19.2566 8.45177 19.0168C8.59176 18.6967 8.75229 18.356 8.91188 18.0154L8.93241 17.9753C10.3136 14.9916 11.7957 11.9482 13.3374 8.98507L13.3972 8.86468C13.5577 8.5651 13.7173 8.24405 13.8778 7.94354C14.0383 7.62343 14.2185 7.32291 14.4387 7.06253C14.8596 6.58189 15.4196 6.32151 16.0402 6.32151C16.6608 6.32151 17.2217 6.58189 17.6417 7.06253C17.8619 7.32291 18.0421 7.62343 18.2026 7.94354C18.3631 8.24405 18.5227 8.56416 18.6832 8.86374L18.7439 8.98413C20.2651 11.9669 21.7472 15.0103 23.1284 17.9939V18.0135C23.2889 18.3336 23.4289 18.6948 23.5885 19.0149C23.6884 19.2557 23.7892 19.4554 23.8489 19.6552C24.0085 20.1769 24.0682 20.6771 23.9879 21.1979ZM15.9991 20.2562C14.9184 18.8945 14.2175 17.6132 13.9767 16.5324C13.8769 16.0714 13.8563 15.671 13.917 15.3108C13.9571 14.9907 14.0775 14.7098 14.2371 14.4699C14.6179 13.9295 15.2581 13.5889 15.9991 13.5889C16.7402 13.5889 17.4009 13.9099 17.7612 14.4699C17.9217 14.7107 18.0411 14.9907 18.0813 15.3108C18.141 15.671 18.1214 16.0919 18.0215 16.5324C17.7817 17.5936 17.0808 18.8749 15.9991 20.2562ZM25.0295 19.2156C24.9296 18.9757 24.8288 18.7154 24.729 18.4951C24.5684 18.1349 24.4088 17.7942 24.2679 17.4741L24.2483 17.4545C22.8671 14.4512 21.385 11.4078 19.8237 8.40457L19.764 8.28418C19.6034 7.98367 19.4438 7.66356 19.2833 7.34344C19.0827 6.9832 18.8829 6.60243 18.5628 6.24218C17.9217 5.4405 17.0005 5 16.0197 5C15.0183 5 14.1177 5.4405 13.456 6.20112C13.1555 6.56136 12.9352 6.94214 12.7355 7.30238C12.575 7.62249 12.4154 7.9426 12.2549 8.24312L12.1951 8.36258C10.6534 11.3658 9.15173 14.4092 7.77049 17.4125L7.75089 17.4526C7.6109 17.7727 7.45037 18.1134 7.28985 18.4736C7.18252 18.7107 7.08266 18.9515 6.98934 19.1941C6.72895 19.9351 6.64869 20.636 6.74855 21.3565C6.96881 22.8581 7.97021 24.1199 9.35145 24.6799C9.87221 24.9001 10.4126 25 10.9735 25C11.134 25 11.3337 24.9804 11.4942 24.9599C12.155 24.8796 12.8353 24.6603 13.4961 24.2795C14.3174 23.8194 15.0976 23.1587 15.9786 22.1974C16.8596 23.1587 17.6604 23.8194 18.4611 24.2795C19.1219 24.6603 19.8022 24.8796 20.463 24.9599C20.6235 24.9804 20.8232 25 20.9837 25C21.5446 25 22.1046 24.9001 22.6058 24.6799C24.0075 24.119 24.9884 22.8376 25.2087 21.3565C25.3692 20.6566 25.2889 19.9566 25.0295 19.2156Z" fill="white"/>
</svg>

<svg width="32" height="32" fill="none" xmlns="http://www.w3.org/2000/svg"><path d="M0 16C0 7.163 7.163 0 16 0s16 7.163 16 16-7.163 16-16 16S0 24.837 0 16Z" fill="#FF5A5F"/><path d="M23.988 21.198a2.974 2.974 0 0 1-1.822 2.342c-.48.2-1.001.26-1.522.2-.5-.06-1.001-.22-1.521-.52-.72-.401-1.442-1.02-2.283-1.942 1.322-1.622 2.122-3.103 2.423-4.424.14-.621.16-1.182.1-1.703-.08-.5-.26-.961-.54-1.361-.621-.901-1.663-1.422-2.824-1.422-1.16 0-2.202.54-2.823 1.421-.28.4-.46.862-.54 1.362-.08.521-.06 1.101.1 1.703.3 1.321 1.12 2.823 2.422 4.444-.821.92-1.561 1.542-2.282 1.942a3.93 3.93 0 0 1-1.522.52 3.203 3.203 0 0 1-1.521-.2 2.976 2.976 0 0 1-1.822-2.342c-.06-.5-.02-1 .18-1.561.06-.2.16-.4.26-.64.14-.32.301-.661.46-1.002l.021-.04a218.119 218.119 0 0 1 4.405-8.99l.06-.12c.16-.3.32-.621.48-.921.161-.32.341-.621.562-.881.42-.481.98-.741 1.601-.741.62 0 1.182.26 1.602.74.22.26.4.561.56.882.161.3.32.62.481.92l.06.12a265.103 265.103 0 0 1 4.385 9.01v.02c.16.32.3.68.46 1 .1.242.201.441.26.641.16.522.22 1.022.14 1.543Zm-7.989-.942c-1.08-1.361-1.782-2.643-2.022-3.724-.1-.46-.12-.861-.06-1.221.04-.32.16-.601.32-.841.38-.54 1.021-.881 1.762-.881.741 0 1.402.32 1.762.88.16.242.28.522.32.842.06.36.04.78-.06 1.221-.24 1.062-.94 2.343-2.022 3.724Zm9.03-1.04c-.1-.24-.2-.5-.3-.72-.16-.361-.32-.702-.461-1.022l-.02-.02a209.048 209.048 0 0 0-4.424-9.05l-.06-.12c-.16-.3-.32-.62-.48-.94-.201-.36-.401-.742-.721-1.102A3.234 3.234 0 0 0 16.02 5c-1.002 0-1.902.44-2.564 1.201-.3.36-.52.741-.72 1.101-.161.32-.32.64-.481.941l-.06.12a234.617 234.617 0 0 0-4.425 9.05l-.02.04c-.14.32-.3.66-.46 1.02-.107.238-.207.479-.3.721-.261.741-.341 1.442-.241 2.163A4.254 4.254 0 0 0 9.35 24.68c.521.22 1.062.32 1.622.32a5.285 5.285 0 0 0 2.523-.72c.821-.46 1.602-1.121 2.483-2.083.88.962 1.681 1.622 2.482 2.082a5.285 5.285 0 0 0 2.523.721c.56 0 1.12-.1 1.622-.32a4.247 4.247 0 0 0 2.603-3.323c.16-.7.08-1.4-.18-2.141Z" fill="#fff"/></svg>
